RestoDelMundo/Paises Bajos/Otras Categorias/Rkvv Evv Echt.svg

<svg xmlns="http://www.w3.org/2000/svg" viewBox="0 0 612 792"><path fill="#0095da" d="M544.67 231.639v-12.044l-47.976-57.355-50.791-9.428c-22.755-4.146-40.968-16.19-60.218-28.924-7.651-3.505-14.216-8.292-30.899 0-15.746 9.427-33.342 19.052-48.89 28.48-15.548-9.428-33.145-19.053-48.89-28.48-16.683-8.292-23.248-3.505-30.899 0-19.25 12.735-37.463 24.778-60.218 28.924l-50.791 9.428-47.976 57.355v12.044c91.758 124.385-.642 218.068-44.226 242.155 61.946 198.818 197.165 118.017 283 203.212 85.835-85.194 221.054-4.393 283-203.212-43.584-24.087-135.984-117.771-44.226-242.155"/><path fill="#fff" d="m523.53 226.118-37.776-45.16L47.267 482.374c7.614 21.262 16.521 39.564 26.561 54.554 10.641 15.887 22.653 28.427 36.722 38.336 6.925 4.877 14.103 8.935 21.496 12.402l353.19-242.783c-2-39.455 10.818-79.271 38.294-118.765"/><path fill="#0095da" d="m219.604 480.277-35.183 24.533-12.469-18.059 31.904-22.269-10.455-14.974-31.957 22.073-11.108-15.854 33.861-23.626-10.253-14.581-55.154 37.962 55.098 79.226 50.551-35.043 5.87-4.22-6.03-8.464ZM450.916 315.357l-18.644 12.921 12.716 18.006 18.447-12.918ZM231.49 467.639l12.717 18.203 18.695-12.922-12.718-18.252ZM374.474 277.767l25.464 73.921-60.647-49.389-21.674 15.378 80.247 61.385 26.472-18.499-28.133-97.78ZM295.888 332.61l-21.677 15.181 25.408 73.429-60.348-49.147-22.167 15.384 80.441 61.136 26.525-18.253ZM331.759 398.059l12.718 18.203 18.642-13.119-12.716-18.005Z"/><path fill="#fff" d="M292.396 236.673h10.958v10.76h-10.958ZM354.786 200.986h-12.685l-10.267 36.132-10.118-36.132h-12.883l14.66 46.448h15.547ZM296.098 200.986H283.66l-10.267 36.132-10.267-36.132h-12.932l14.857 46.448H280.6ZM155.376 231.886c-1.333-4.196-3.307-6.615-5.726-7.454 2.863-.691 5.035-1.974 6.811-3.949 1.53-1.974 2.172-4.393 2.172-7.453 0-3.949-1.283-7.009-4.344-8.983-2.863-1.974-7.453-3.061-13.623-3.061h-18.361v46.447h12.043V229.22h1.728c1.777 0 3.307.247 4.393.691.444.198.642.444.888.444 1.086.84 1.975 2.37 2.616 4.344l4.146 12.734h12.932l-5.676-15.351zm-10.76-12.291c-.839.642-2.37 1.086-4.146 1.333-.642.198-1.086.198-1.727.198h-4.393v-12.044h3.061c1.086 0 2.171.247 3.06.247 1.777.197 3.06.641 3.949 1.283 1.53 1.085 2.172 2.616 2.172 4.59-.002 1.975-.644 3.505-1.976 4.393M351.085 236.673h10.71v10.76h-10.71ZM167.617 236.673h10.957v10.76h-10.957ZM228.279 200.986h-13.771l-14.265 20.14v-20.14h-12.488v46.448h12.488v-21.472l14.462 21.472h15.351l-18.658-25.223ZM233.758 236.673h10.957v10.76h-10.957ZM449.852 550.004c21.087 0 38.5-15.691 41.227-36.032h-82.454c2.727 20.341 20.139 36.032 41.227 36.032M449.852 466.785c-21.088 0-38.5 15.691-41.227 36.032h82.454c-2.727-20.341-20.14-36.032-41.227-36.032"/><path fill="#fff" d="M530.653 508.395c0-31.904-18.496-59.48-45.345-72.615l-10.402 23.923c17.64 9.095 29.709 27.478 29.709 48.691s-12.07 39.597-29.709 48.692l10.402 23.923c26.849-13.134 45.345-40.71 45.345-72.614M468.38 456.852l10.395-23.906a80.5 80.5 0 0 0-25.364-5.263v26.075a54.5 54.5 0 0 1 14.969 3.094M431.322 559.937l-10.395 23.906a80.5 80.5 0 0 0 25.363 5.263v-26.075a54.5 54.5 0 0 1-14.968-3.094M446.29 453.759v-26.075a80.4 80.4 0 0 0-25.362 5.263l10.395 23.905a54.5 54.5 0 0 1 14.967-3.093M395.088 508.395c0-21.213 12.07-39.596 29.71-48.691l-10.402-23.923c-26.849 13.135-45.345 40.711-45.345 72.615s18.495 59.48 45.344 72.615l10.402-23.923c-17.64-9.097-29.709-27.48-29.709-48.693M453.412 563.031v26.075a80.5 80.5 0 0 0 25.363-5.263l-10.395-23.905a54.5 54.5 0 0 1-14.968 3.093"/></svg>

<svg enable-background="new 0 0 612 792" viewBox="0 0 612 792" xmlns="http://www.w3.org/2000/svg"><path d="M 544.67 231.639 v -12.044 l -47.976 -57.355 l -50.791 -9.428 c -22.755 -4.146 -40.968 -16.19 -60.218 -28.924 c -7.651 -3.505 -14.216 -8.292 -30.899 0 c -15.746 9.427 -33.342 19.052 -48.89 28.48 c -15.548 -9.428 -33.145 -19.053 -48.89 -28.48 c -16.683 -8.292 -23.248 -3.505 -30.899 0 c -19.25 12.735 -37.463 24.778 -60.218 28.924 l -50.791 9.428 l -47.976 57.355 v 12.044 c 91.758 124.385 -.642 218.068 -44.226 242.155 c 61.946 198.818 197.165 118.017 283 203.212 c 85.835 -85.194 221.054 -4.393 283 -203.212 C 545.312 449.707 452.912 356.023 544.67 231.639 z" fill="#0095da"/><path d="M 523.53 226.118 l -37.776 -45.16 L 47.267 482.374 c 7.614 21.262 16.521 39.564 26.561 54.554 c 10.641 15.887 22.653 28.427 36.722 38.336 c 6.925 4.877 14.103 8.935 21.496 12.402 l 353.19 -242.783 C 483.236 305.428 496.054 265.612 523.53 226.118 z" fill="#fff"/><path d="M 219.604 480.277 L 184.421 504.81 L 171.952 486.751 L 203.856 464.482 L 193.401 449.508 L 161.444 471.581 L 150.336 455.727 L 184.197 432.101 L 173.944 417.52 L 118.79 455.482 L 173.888 534.708 L 224.439 499.665 L 230.309 495.445 L 224.279 486.981 Z" fill="#0095da"/><path d="M 450.916 315.357 L 432.272 328.278 L 444.988 346.284 L 463.435 333.366 Z" fill="#0095da"/><path d="M 231.49 467.639 L 244.207 485.842 L 262.902 472.92 L 250.184 454.668 Z" fill="#0095da"/><path d="M 374.474 277.767 L 399.938 351.688 L 339.291 302.299 L 317.617 317.677 L 397.864 379.062 L 424.336 360.563 L 396.203 262.783 Z" fill="#0095da"/><path d="M 295.888 332.61 L 274.211 347.791 L 299.619 421.22 L 239.271 372.073 L 217.104 387.457 L 297.545 448.593 L 324.07 430.34 Z" fill="#0095da"/><path d="M 331.759 398.059 L 344.477 416.262 L 363.119 403.143 L 350.403 385.138 Z" fill="#0095da"/><path d="M 292.396 236.673 H 303.354 V 247.433 H 292.396 Z" fill="#fff"/><path d="M 354.786 200.986 L 342.101 200.986 L 331.834 237.118 L 321.716 200.986 L 308.833 200.986 L 323.493 247.434 L 339.04 247.434 Z" fill="#fff"/><path d="M 296.098 200.986 L 283.66 200.986 L 273.393 237.118 L 263.126 200.986 L 250.194 200.986 L 265.051 247.434 L 280.6 247.434 Z" fill="#fff"/><path d="M 155.376 231.886 c -1.333 -4.196 -3.307 -6.615 -5.726 -7.454 c 2.863 -.691 5.035 -1.974 6.811 -3.949 c 1.53 -1.974 2.172 -4.393 2.172 -7.453 c 0 -3.949 -1.283 -7.009 -4.344 -8.983 c -2.863 -1.974 -7.453 -3.061 -13.623 -3.061 h -18.361 v 46.447 h 12.043 V 229.22 h 1.728 c 1.777 0 3.307 .247 4.393 .691 c .444 .198 .642 .444 .888 .444 c 1.086 .84 1.975 2.37 2.616 4.344 l 4.146 12.734 h 12.932 l -5.676 -15.351 V 231.886 z M 144.616 219.595 c -.839 .642 -2.37 1.086 -4.146 1.333 c -.642 .198 -1.086 .198 -1.727 .198 h -4.393 v -12.044 h 3.061 c 1.086 0 2.171 .247 3.06 .247 c 1.777 .197 3.06 .641 3.949 1.283 c 1.53 1.085 2.172 2.616 2.172 4.59 C 146.59 217.177 145.948 218.707 144.616 219.595 z" fill="#fff"/><path d="M 351.085 236.673 H 361.795 V 247.433 H 351.085 Z" fill="#fff"/><path d="M 167.617 236.673 H 178.574 V 247.433 H 167.617 Z" fill="#fff"/><path d="M 228.279 200.986 L 214.508 200.986 L 200.243 221.126 L 200.243 200.986 L 187.755 200.986 L 187.755 247.434 L 200.243 247.434 L 200.243 225.962 L 214.705 247.434 L 230.056 247.434 L 211.398 222.211 Z" fill="#fff"/><path d="M 233.758 236.673 H 244.715 V 247.433 H 233.758 Z" fill="#fff"/><path d="M 449.852 550.004 c 21.087 0 38.5 -15.691 41.227 -36.032 h -82.454 C 411.352 534.313 428.764 550.004 449.852 550.004 z" fill="#fff"/><path d="M 449.852 466.785 c -21.088 0 -38.5 15.691 -41.227 36.032 h 82.454 C 488.352 482.476 470.939 466.785 449.852 466.785 z" fill="#fff"/><path d="M 530.653 508.395 c 0 -31.904 -18.496 -59.48 -45.345 -72.615 l -10.402 23.923 c 17.64 9.095 29.709 27.478 29.709 48.691 c 0 21.214 -12.07 39.597 -29.709 48.692 l 10.402 23.923 C 512.157 567.875 530.653 540.299 530.653 508.395 z" fill="#fff"/><path d="M 468.38 456.852 l 10.395 -23.906 c -7.931 -3.042 -16.458 -4.876 -25.364 -5.263 v 26.075 C 458.634 454.094 463.658 455.154 468.38 456.852 z" fill="#fff"/><path d="M 431.322 559.937 l -10.395 23.906 c 7.931 3.042 16.457 4.876 25.363 5.263 v -26.075 C 441.069 562.695 436.045 561.635 431.322 559.937 z" fill="#fff"/><path d="M 446.29 453.759 v -26.075 c -8.906 .387 -17.432 2.221 -25.362 5.263 l 10.395 23.905 C 436.045 455.154 441.069 454.094 446.29 453.759 z" fill="#fff"/><path d="M 395.088 508.395 c 0 -21.213 12.07 -39.596 29.71 -48.691 l -10.402 -23.923 c -26.849 13.135 -45.345 40.711 -45.345 72.615 s 18.495 59.48 45.344 72.615 l 10.402 -23.923 C 407.157 547.991 395.088 529.608 395.088 508.395 z" fill="#fff"/><path d="M 453.412 563.031 v 26.075 c 8.906 -.387 17.433 -2.221 25.363 -5.263 l -10.395 -23.905 C 463.659 561.635 458.635 562.696 453.412 563.031 z" fill="#fff"/></svg>
